client/public/assets/icons/utility/quotation_marks.svg

<?xml version="1.0"?><svg xmlns="http://www.w3.org/2000/svg" width="52" height="52" viewBox="0 0 52 52"><g fill="#fff"><path d="m44.3 6.5c-9 0-15.9 7-15.9 16v21.5c0 0.8 0.7 1.5 1.5 1.5h17c0.8 0 1.5-0.7 1.5-1.5v-17c0-0.8-0.7-1.5-1.5-1.5h-12.5v-3c0-5 4.9-10 9.9-10h2.6c0.8 0 1.5-0.7 1.5-1.5v-3c0-0.8-0.7-1.5-1.5-1.5h-2.6z m-24.8 0c-9 0-15.9 7-15.9 16v21.5c0 0.8 0.7 1.5 1.5 1.5h17c0.8 0 1.5-0.7 1.5-1.5v-17c0-0.8-0.7-1.5-1.5-1.5h-12.5v-3c0-5 4.9-10 9.9-10h2.6c0.8 0 1.5-0.7 1.5-1.5v-3c0-0.8-0.7-1.5-1.5-1.5h-2.6z"></path></g><path d="m30.5 8"></path></svg>

<?xml version="1.0" encoding="utf-8"?>
<!-- Generator: Adobe Illustrator 20.1.0, SVG Export Plug-In . SVG Version: 6.00 Build 0)  -->
<svg version="1.1" id="Layer_1" xmlns="http://www.w3.org/2000/svg" xmlns:xlink="http://www.w3.org/1999/xlink" x="0px" y="0px"
	 width="52px" height="52px" viewBox="0 0 52 52" enable-background="new 0 0 52 52" xml:space="preserve">
<g>
	<path fill="#FFFFFF" d="M44.3,6.5c-9,0-15.9,7-15.9,16V44c0,0.8,0.7,1.5,1.5,1.5h17c0.8,0,1.5-0.7,1.5-1.5V27
		c0-0.8-0.7-1.5-1.5-1.5H34.4v-3c0-5,4.9-10,9.9-10h2.6c0.8,0,1.5-0.7,1.5-1.5V8c0-0.8-0.7-1.5-1.5-1.5H44.3z"/>
	<path fill="#FFFFFF" d="M19.5,6.5c-9,0-15.9,7-15.9,16V44c0,0.8,0.7,1.5,1.5,1.5h17c0.8,0,1.5-0.7,1.5-1.5V27
		c0-0.8-0.7-1.5-1.5-1.5H9.6v-3c0-5,4.9-10,9.9-10h2.6c0.8,0,1.5-0.7,1.5-1.5V8c0-0.8-0.7-1.5-1.5-1.5H19.5z"/>
</g>
<path d="M30.5,8"/>
</svg>
